X: 7858
T: Companion Star
R: hornpipe
M: 4/4
K: Dmajor
CDAB, DFA,E|A6 z F|BAdc AFEF|A,6 zA,|
FECD ACDF|BAdc BAdc|AFEF D4-|[M:2/4]D4:|
M:4/4
d4- dAdc|A6- A z|d4 eAdc|A6 z2|
FECD ACDF|BAdc BAdc|AFEF D4-|[M:2/4] D4:|

